X:9310
T:Las Dancitas (Versin 2)
R:Danza
M:3/8
L:1/8
Q:1/4=160
K:C
G2 G|F2 E|GAF|F2 E|G2 G|
F2 G|FED|[1 C3:|[2 C2 C|:FED|EDC|
DEF|G2 C|FED|EDC|DCB,|[1C2 C:|
[2 C3||
